!!!COM:	Martini, Johannes
!!!CDT:	~1440///-~1497//
!!!OTL:	Fault il que heur soye
!!!AGN:	Song; Chanson
!!!SCT:	Mar3005
!!!SCA:	Mar3005
!!!voices:	4
**kern	**kern	**kern	**kern
*staff4	*staff3	*staff2	*staff1
*Ivox	*Ivox	*Ivox	*Ivox
*I"Contrabassus	*I"Contrabassus	*I"Altus	*I"Cantus
*I'Cb	*I'Cb	*I'A	*I'Cn
*clefF4	*clefF4	*clefGv2	*clefG2
*k[]	*k[]	*k[]	*k[]
*M2/1	*M2/1	*M2/1	*M2/1
*met(C|)	*met(C|)	*met(C|)	*met(C|)
=1-	=1-	=1-	=1-
1r	1r	0r	0r
2.C/	1C	.	.
4D\	.	.	.
=2	=2	=2	=2
2.E\	[0C	0r	0r
4F\	.	.	.
2G\	.	.	.
2A\	.	.	.
=3	=3	=3	=3
2G\	1C]	0r	0r
4F\	.	.	.
4E\	.	.	.
4D\	1BB	.	.
4E\	.	.	.
4F\	.	.	.
4G\	.	.	.
=4	=4	=4	=4
2E\	1C	0r	0r
1G	.	.	.
.	1AA	.	.
2F\	.	.	.
=5	=5	=5	=5
2G\	2.GG/	0r	0r
4F\	.	.	.
4E\	4AA/	.	.
2D\	2BB/	.	.
2C/	[2C/	.	.
=6	=6	=6	=6
1D	2C/]	1r	1r
.	2BB/	.	.
2r	1C	1c	2.c/
2C/	.	.	.
.	.	.	4d/
=7	=7	=7	=7
2.C/	0r	[0c	2.e/
4D\	.	.	4f/
2E\	.	.	2g/
2F\	.	.	2a/
=8	=8	=8	=8
2E\	0r	1c]	2g/
2F\	.	.	4f/
.	.	.	4e/
4G\	.	1B	4d/
4F\	.	.	4e/
4E\	.	.	4f/
4D\	.	.	4g/
=9	=9	=9	=9
1C	0r	1c	2e/
.	.	.	1g
2r	.	1A	.
2D\	.	.	2f/
=10	=10	=10	=10
4E\	0r	2.G/	2g/
4D\	.	.	.
4E\	.	.	4f/
4F\	.	4A/	4e/
2G\	.	2B\	2d/
2A\	.	[2c\	2c/
=11	=11	=11	=11
1G	1r	2c\]	1d
.	.	2B\	.
2.C/	1G	1c	1c
4BB/	.	.	.
=12	=12	=12	=12
2.GG/	0G	[0d	2B/
.	.	.	1d
4AA/	.	.	.
2BB/	.	.	.
2C/	.	.	4c/
.	.	.	4B/
=13	=13	=13	=13
1D	1F	1d]	1A
2r	1G	1r	1G
2GG/	.	.	.
=14	=14	=14	=14
2AA/	1E	1c	0r
2C/	.	.	.
4GG/	2.D\	2B\	.
4AA/	.	.	.
4BB/	.	[2d\	.
4C/	4E\	.	.
=15	=15	=15	=15
2D\	2F\	2d\]	0r
2GG/	1G	4c\	.
.	.	4B\	.
1D	.	1A	.
.	2F#i\	.	.
=16	=16	=16	=16
3E\V	1G	0G	1r
3D\	.	.	.
3C/Z	.	.	.
3BB/V	1E	.	1g
3%2CZ	.	.	.
=17	=17	=17	=17
1FF	0F	1c	2a/
.	.	.	2b\
2r	.	1A	2cc\
2FF/	.	.	2dd\
=18	=18	=18	=18
1GG	1D	1G	1b
1AA	2r	1F	2a/
.	2C/	.	[2cc\
=19	=19	=19	=19
1GG	1D	1G	2cc\]
.	.	.	2b\
2r	2F\	2A/	2a/
2GG/	2D\	2B\	4g/
.	.	.	4f/
=20	=20	=20	=20
2C/	2E\	2c\	2e/
4BB/	2F\	2d\	2d/
4AA/	.	.	.
1GG	1G	1B	2r
.	.	.	[2g/
=21	=21	=21	=21
3%2DV	1r	0A	2g/]
.	.	.	4f#i/
3%2C	.	.	.
.	.	.	4e/
.	1A	.	1f#i
3%2DZ	.	.	.
=22	=22	=22	=22
1GG	2B\	0G	[0g
.	2c\	.	.
2r	1d	.	.
[2G\	.	.	.
=23	=23	=23	=23
4G\]	0G	1r	0g]
4A\	.	.	.
2.B\	.	.	.
.	.	1G	.
4c\	.	.	.
[2d\	.	.	.
=24	=24	=24	=24
4d\]	1F	1D	1r
4c\	.	.	.
4B\	.	.	.
4A\	.	.	.
2G\	1E	1G	1e
[2c\	.	.	.
=25	=25	=25	=25
2c\]	0D	1A	1f
4B\	.	.	.
4A\	.	.	.
1B	.	1F	1d
=26	=26	=26	=26
2.c\	1C	1G	2e/
.	.	.	2.g/
4B\	.	.	.
1G	1E	1g	.
.	.	.	4a/
.	.	.	[2b\
=27	=27	=27	=27
0r	2C/	2e\	4b\]
.	.	.	4cc\
.	2BB-/	2f\	2.dd\
.	1GG	2.g\	.
.	.	.	4cc\
.	.	.	4b\
.	.	4f\	4a/
=28	=28	=28	=28
1r	2G\	4e\	2g/
.	.	4d\	.
.	2A\	2c\	1cc
2r	1G	1d	.
2GG/	.	.	2b\
=29	=29	=29	=29
2AA/	1C	1c	1cc
2C/	.	.	.
2BB/	2GG/	1r	1r
[2C/	2AA/	.	.
=30	=30	=30	=30
2C/]	2C/	0r	0r
2D\	2BB/	.	.
2E\	1C	.	.
2G\	.	.	.
=31	=31	=31	=31
2F\	2D\	0r	0r
1G	2E\	.	.
.	2G\	.	.
2A\	2F\	.	.
=32	=32	=32	=32
2G\	1G	0r	0r
2.B\	.	.	.
.	1D	.	.
4A\	.	.	.
[2A\	.	.	.
=33	=33	=33	=33
4A\]	2C/	0r	0r
4G\	.	.	.
1G	2BB/	.	.
.	1AA	.	.
2F#i\	.	.	.
=34	=34	=34	=34
0G	1GG	1r	0r
.	1r	[1d	.
=35	=35	=35	=35
0E	0G	2d\]	1r
.	.	4c#i\	.
.	.	4B\	.
.	.	1c#i	[1g
=36	=36	=36	=36
0D	0A	0d	2g/]
.	.	.	4f#i/
.	.	.	4e/
.	.	.	1f#i
=37	=37	=37	=37
1r	0G	1B	0g
1E	.	1G	.
=38	=38	=38	=38
1.AA	0r	0A	1e
.	.	.	1c
[2C/	.	.	.
=39	=39	=39	=39
2C/]	1GG	1r	0d
4BB/	.	.	.
4AA/	.	.	.
1BB	1D	[1G	.
=40	=40	=40	=40
1C	1E	2G/]	1r
.	.	4F#i/	.
.	.	4E/	.
1AA	1C	1F#i	[1c
=41	=41	=41	=41
0GG	0D	0G	2c/]
.	.	.	4B/
.	.	.	4A/
.	.	.	1B
=42	=42	=42	=42
*M2/1	*	*	*
*met(3)	*	*	*
3E\	1C	1E	2r
3F\	.	.	.
.	.	.	2g/
3G\	.	.	.
3A\	1AA	1C	2f/
3E\	.	.	.
.	.	.	[2e/
3F\	.	.	.
=43	=43	=43	=43
3%2G	2GG/	0D	2e/]
.	2FF/	.	4d/
3A\	.	.	.
.	.	.	4c/
3%2G	1GG	.	2.B/
3F\	.	.	.
.	.	.	4A/
=44	=44	=44	=44
3%2.E	1r	0C	1c
3F\	1C	.	[1e
3%2G	.	.	.
=45	=45	=45	=45
3%2.C	1.G	1r	2e/]
.	.	.	2f/
3D\	.	1c	1g
3%2E	.	.	.
.	2F\	.	.
=46	=46	=46	=46
3%2.AA	1E	0c	1a
3BB/	1E	.	1g
3%2C	.	.	.
=47	=47	=47	=47
3%4FF	0F	0A	1.cc
3%2FF	.	.	.
.	.	.	4b\
.	.	.	4a/
=48	=48	=48	=48
3%4.GG;	0D;	0G;	0b;
=49	=49	=49	=49
*M2/1	*	*	*
*met(C|)	*	*	*
0r	1.G	0r	0r
.	2F\	.	.
=50	=50	=50	=50
0r	1G	0r	0r
.	1A	.	.
=51	=51	=51	=51
0r	2G\	0r	1.g
.	2.G\	.	.
.	4F\	.	.
.	4E\	.	2f/
.	4D\	.	.
=52	=52	=52	=52
0r	1E	0r	1g
.	1D	.	1a
=53	=53	=53	=53
1.C	1E	0r	2g/
.	.	.	2.g/
.	1G	.	.
.	.	.	4f/
2BB/	.	.	4e/
.	.	.	4d/
=54	=54	=54	=54
1C	2r	0r	1e
.	2A\	.	.
1D	4B\	.	1d
.	4A\	.	.
.	4G\	.	.
.	4F\	.	.
=55	=55	=55	=55
2C/	2E\	1.c	0r
2.C/	2.A\	.	.
4BB/	4G\	.	.
4AA/	[2G\	2B\	.
4GG/	.	.	.
=56	=56	=56	=56
1AA	2G\]	1c	2r
.	2F#i\	.	2a/
1GG	1G	1d	4b\
.	.	.	4a/
.	.	.	4g/
.	.	.	4f/
=57	=57	=57	=57
2.AA/	1C	2c\	2e/
.	.	2.c\	1a
4BB/	.	.	.
4C/	1r	.	.
4D\	.	4B\	.
2E\	.	4A/	[2g/
.	.	4G/	.
=58	=58	=58	=58
1D	1r	1A	2g/]
.	.	.	2f#i/
1G	1GG	2G/	1g
.	.	2B\	.
=59	=59	=59	=59
2E\	2G\	2c\	0r
2D\	2A\	2.d\	.
2BB/	2D\	.	.
.	.	4c\	.
2C/	[2G\	[2c\	.
=60	=60	=60	=60
1D	2G\]	2c\]	1d
.	2F\	2B\	.
1C	1G	1c	1e
=61	=61	=61	=61
2AA/	2C/	0r	2f/
2GG/	2D\	.	1g
2C/	2E\	.	.
[2C/	2C/	.	4f/
.	.	.	4e/
=62	=62	=62	=62
2C/]	1D	1d	1f
2BB/	.	.	.
1C	2r	1e	2e/
.	2G\	.	[2c/
=63	=63	=63	=63
1r	2A\	2f\	2c/]
.	2G\	1g	2B/
1C	2E\	.	2c/
.	2C/	4f\	2e/
.	.	4e\	.
=64	=64	=64	=64
1BB-	2.D\	1f	1d
.	4C/	.	.
1C	2AA/	2e\	1c
.	2C/	[2c\	.
=65	=65	=65	=65
1G	1GG	2c\]	2r
.	.	2B\	2g/
2F\	1r	2c\	2a/
2C/	.	2e\	[2cc\
=66	=66	=66	=66
1G	1GG	1d	2cc\]
.	.	.	2b\
2A\	2.C/	1c	2cc\
2F\	.	.	[2a/
.	4D\	.	.
=67	=67	=67	=67
2G\	1E	2B\	4a/]
.	.	.	4g/
2C/	.	2c\	1g
1D	2.F\	1A	.
.	.	.	2f/
.	4E\	.	.
=68	=68	=68	=68
1E	1C	1G	2g/
.	.	.	2.e/
1r	1AA	1A	.
.	.	.	4c/
.	.	.	[2f/
=69	=69	=69	=69
3%2.cV	1C	2G/	2f/]
.	.	2A/	2e/
3B\	1D	1F	2f/
3%2AZ	.	.	.
.	.	.	[2d/
=70	=70	=70	=70
1G	1GG	1G	4d/]
.	.	.	4B/
.	.	.	1e
2r	1D	2F/	.
2GG/	.	2G/	2d/
=71	=71	=71	=71
2C/	2r	1E	2e/
2AA/	1A	.	2.c/
2D\	.	1F	.
.	.	.	4A/
2BB-i/	2B-\	.	[2d/
=72	=72	=72	=72
2C/	2G\	2E/	4d/]
.	.	.	4c/
2FF/	2A\	2F/	1c
1GG	1G	1D	.
.	.	.	2B/
=73	=73	=73	=73
2G\	2r	[0C	1c
2.E\	2.G\	.	.
.	.	.	1r
4D\	4F\	.	.
2C/	2G\	.	.
=74	=74	=74	=74
2r	2A\	0C]	0r
2.G\	1G	.	.
4F\	.	.	.
2G\	2E\	.	.
=75	=75	=75	=75
2A\	2F\	0r	2r
1G	2G\	.	2.g/
.	1E	.	.
.	.	.	4f/
2E\	.	.	2g/
=76	=76	=76	=76
2F\	2D\	2r	2a/
2G\	2E\	2.c\	1g
1E	2C/	.	.
.	.	4B\	.
.	2G\	2c\	2e/
=77	=77	=77	=77
2D\	2F\	2d\	2f/
2E\	2.C/	1c	2g/
2.C/	.	.	1e
.	4D\	.	.
.	4E\	2A/	.
4BB/	4F\	.	.
=78	=78	=78	=78
1GG	1G	2B\	2d/
.	.	2c\	1g
2C/	2E\	1A	.
2D\	2D\	.	2f/
=79	=79	=79	=79
4E\	1C	2G/	1g
4D\	.	.	.
4C/	.	1c	.
4BB/	.	.	.
2AA/	2F\	.	2a/
2GG/	2G\	2B\	2b\
=80	=80	=80	=80
2C/	2.E\	1c	2g/
2AA/	.	.	1cc
.	4F\	.	.
1GG	1G	2d\	.
.	.	2e\	2b\
=81	=81	=81	=81
2C/	1A	2c\	2cc\
2D\	.	1f	1a
2F\	2D\	.	.
2C/	2G\	2e\	2g/
=82	=82	=82	=82
2r	2F\	2f\	2a/
1GG	1G	2.d\	2.b\
.	.	4c\	4a/
[2C/	2E\	[2e\	[2cc\
=83	=83	=83	=83
2C/]	2C/	4e\]	4cc\]
.	.	4d\	4b\
2FF/	1F	4c\	4a/
.	.	4B\	4g/
2AA/	.	2A/	2cc\
[2GG/	2G\	[2d\	[2b\
=84	=84	=84	=84
1GG]	2.D\	4d\]	4b\]
.	.	4c\	4a/
.	.	2B\	1g
.	4E\	.	.
1D	1F	1A	.
.	.	.	2f#i/
=85	=85	=85	=85
0GGl	0Dl	0Gl	0gl
==	==	==	==
*-	*-	*-	*-
!!!RDF**kern: l=long note in original notation
!!!RDF**kern: i=editorial accidental
!!!RDF**kern: V=start of tuplet marker
!!!RDF**kern: Z=end of tuplet marker
!!!ENC:	Chris Gage 10-30-2014
!!!END:	2015/02/28/
!!!EED:	Jesse Rodin
!!!EEV:	2015/03/05/
!!!ONB:	Translated from MusicXML and edited on 2015/03/05/ by Craig Sapp
!!muse2ps: C^@{COM}^i2I150v85,85,85,150Q16
